public/images/redditIcon.svg

<svg width="36" height="36" viewBox="0 0 36 36" fill="none" xmlns="http://www.w3.org/2000/svg">
<path fill-rule="evenodd" clip-rule="evenodd" d="M30.8765 15.4184C30.8765 18.9154 29.6844 22.1341 27.7372 24.7171L34.453 31.4329C35.4464 32.4263 35.4464 34.0158 34.453 35.0093C33.9761 35.5259 33.3006 35.7643 32.6647 35.7643C32.0289 35.7643 31.3534 35.4862 30.8765 35.0093L24.121 28.2538L24.0416 28.1743C21.5778 29.8433 18.5974 30.8368 15.4184 30.8368C6.91444 30.8368 0 23.9224 0 15.4184C0 6.91444 6.91444 0 15.4184 0C23.9224 0 30.8765 6.91444 30.8765 15.4184ZM15.4121 29.8228C23.3938 29.8228 29.8642 23.3688 29.8642 15.4074C29.8642 7.44592 23.3938 0.991902 15.4121 0.991902C7.43042 0.991902 0.959997 7.44592 0.959997 15.4074C0.959997 23.3688 7.43042 29.8228 15.4121 29.8228Z" fill="#1E2537"/>
<path fill-rule="evenodd" clip-rule="evenodd" d="M23.218 9.88544C24.1711 9.88544 24.9437 9.1128 24.9437 8.1597C24.9227 7.22165 24.1563 6.47217 23.218 6.47217C22.2797 6.47217 21.5133 7.22165 21.4923 8.1597C21.4923 9.1128 22.2649 9.88544 23.218 9.88544ZM21.4317 7.80547L17.0542 6.77531L17.0542 6.77522L21.4317 7.80547ZM17.0538 6.77522L17.0542 6.77531L15.354 11.9637L17.0538 6.77522ZM18.7882 21.4791C17.9236 22.3428 16.5313 22.5093 15.3622 22.5093C14.1944 22.5093 12.8008 22.3428 11.9375 21.4791H18.7882ZM5.53022 17.4938C4.73449 17.1446 4.2207 16.3577 4.22099 15.4887C4.22043 14.5685 4.7955 13.7463 5.66 13.4312C6.52451 13.116 7.49381 13.3753 8.08553 14.08L5.53022 17.4938ZM25.0384 13.423C24.1604 13.1159 23.1842 13.3973 22.6042 14.1245L25.1077 17.5302C25.9498 17.203 26.5046 16.3922 26.5047 15.4887C26.5044 14.5585 25.9164 13.7301 25.0384 13.423Z" fill="white"/>
<path fill-rule="evenodd" clip-rule="evenodd" d="M4.96839 18.4999C4.96839 22.3065 9.60972 25.4033 15.3151 25.4033C21.0204 25.4033 25.6621 22.3065 25.663 18.4999C25.663 18.2542 25.6436 18.012 25.6059 17.7728C26.4322 17.3105 26.9424 16.436 26.9381 15.4892C26.9364 14.042 25.7637 12.8693 24.3166 12.8677C23.6579 12.8663 23.0231 13.1143 22.5398 13.5619C20.8097 12.4352 18.4923 11.7081 15.9262 11.6082L17.3418 7.28734L21.0597 8.16275C21.0624 9.35322 22.0275 10.3172 23.218 10.3184C24.4094 10.317 25.3748 9.35154 25.3763 8.16016C25.3751 6.96861 24.4095 6.0029 23.218 6.00146C22.3529 6.00252 21.5717 6.51903 21.2319 7.31459L17.1571 6.35526L17.1481 6.3531L16.7666 6.26314L15.0183 11.5987C12.3553 11.6488 9.94146 12.3737 8.14695 13.5255C7.67075 13.1034 7.05528 12.8672 6.40953 12.8672C4.96259 12.8691 3.79015 14.0418 3.78848 15.4887C3.78853 16.3983 4.25973 17.243 5.0337 17.7209C4.99045 17.9766 4.96839 18.2369 4.96839 18.4999ZM5.83342 18.4999C5.83342 18.2248 5.86242 17.9506 5.91992 17.6816C5.92176 17.6785 5.92317 17.6752 5.9246 17.6719L5.92641 17.6677C5.94948 17.6154 5.96183 17.5589 5.96274 17.5017C6.26334 16.3555 7.07301 15.317 8.23778 14.4853C8.3045 14.4597 8.36401 14.4183 8.41122 14.3646C10.1417 13.1934 12.5967 12.4611 15.3151 12.4611C18.0611 12.4611 20.5373 13.2081 22.2704 14.3996C22.3193 14.4594 22.3834 14.5048 22.4559 14.5311C23.596 15.3624 24.3854 16.394 24.6747 17.5302C24.6747 17.5953 24.6893 17.6596 24.7175 17.7183C24.7699 17.9744 24.7967 18.2352 24.7967 18.4999C24.7967 21.8294 20.5433 24.5383 15.3151 24.5383C10.0868 24.5383 5.83342 21.8298 5.83342 18.4999ZM23.2625 14.0835C24.2656 14.8858 25.0017 15.8412 25.378 16.8896C25.8174 16.5583 26.0747 16.0391 26.0722 15.4887C26.0712 14.5191 25.2854 13.7332 24.3157 13.7323C23.9358 13.7317 23.5661 13.855 23.2625 14.0835ZM4.65352 15.4887C4.65447 14.5192 5.44004 13.7335 6.40953 13.7323C6.7686 13.7322 7.11906 13.8421 7.41384 14.0471C6.40694 14.8417 5.66344 15.7893 5.27461 16.8295C4.88708 16.5008 4.65352 16.0134 4.65352 15.4887ZM23.2176 6.86607C22.5048 6.86607 21.9243 7.4465 21.9243 8.15972C21.9243 8.87294 22.5048 9.45295 23.2176 9.45295C23.9304 9.45295 24.5108 8.87294 24.5108 8.15972C24.5108 7.4465 23.9308 6.86607 23.2176 6.86607ZM11.6313 21.7844C12.4094 22.563 13.63 22.9414 15.3622 22.9414C17.0944 22.9414 18.3146 22.563 19.0935 21.7844C19.2028 21.6753 19.2455 21.5161 19.2056 21.3669C19.1656 21.2177 19.0491 21.1011 18.9 21.0611C18.7508 21.0211 18.5916 21.0637 18.4824 21.1729C17.8738 21.7805 16.8531 22.0764 15.3622 22.0764C13.8709 22.0764 12.851 21.7805 12.2433 21.1729C12.0744 21.0039 11.8005 21.0038 11.6315 21.1726C11.4625 21.3415 11.4624 21.6154 11.6313 21.7844Z" fill="#1E2537"/>
<path fill-rule="evenodd" clip-rule="evenodd" d="M10.2611 17.2426C10.2611 16.362 11.0003 15.6228 11.8809 15.6228C12.7615 15.6228 13.476 16.362 13.476 17.2426C13.476 18.1232 12.7619 18.8377 11.8809 18.8377C10.9998 18.8377 10.2611 18.1232 10.2611 17.2426ZM17.248 17.2426C17.248 16.3611 17.988 15.6228 18.8695 15.6228C19.7505 15.6228 20.4646 16.3611 20.4646 17.2426C20.4646 18.1236 19.7509 18.8377 18.8695 18.8377C17.988 18.8377 17.248 18.1236 17.248 17.2426Z" fill="#FF4500"/>
</svg>

<svg width="36" height="36" fill="none" xmlns="http://www.w3.org/2000/svg"><path fill-rule="evenodd" clip-rule="evenodd" d="M30.877 15.418c0 3.497-1.193 6.716-3.14 9.3l6.716 6.715a2.518 2.518 0 0 1 0 3.576c-.477.517-1.152.755-1.788.755a2.6 2.6 0 0 1-1.788-.755l-6.756-6.755-.08-.08a15.37 15.37 0 0 1-8.623 2.663C6.914 30.837 0 23.922 0 15.418 0 6.914 6.914 0 15.418 0s15.459 6.914 15.459 15.418ZM15.412 29.823c7.982 0 14.452-6.454 14.452-14.416 0-7.961-6.47-14.415-14.452-14.415S.96 7.446.96 15.407c0 7.962 6.47 14.416 14.452 14.416Z" fill="#1E2537"/><path fill-rule="evenodd" clip-rule="evenodd" d="M23.218 9.885c.953 0 1.726-.772 1.726-1.725a1.726 1.726 0 0 0-3.452 0c0 .953.773 1.725 1.726 1.725Zm-1.786-2.08-4.378-1.03 4.378 1.03Zm-4.378-1.03-1.7 5.189 1.7-5.189Zm1.734 14.704c-.864.864-2.257 1.03-3.426 1.03-1.168 0-2.561-.166-3.425-1.03h6.851ZM5.53 17.494a2.189 2.189 0 1 1 2.556-3.414L5.53 17.494Zm19.508-4.071a2.19 2.19 0 0 0-2.434.701l2.504 3.406a2.19 2.19 0 0 0-.07-4.107Z" fill="#fff"/><path fill-rule="evenodd" clip-rule="evenodd" d="M4.968 18.5c0 3.806 4.642 6.903 10.347 6.903 5.705 0 10.347-3.096 10.348-6.903 0-.246-.02-.488-.057-.727a2.603 2.603 0 0 0 1.332-2.284 2.624 2.624 0 0 0-2.621-2.621 2.607 2.607 0 0 0-1.777.694c-1.73-1.127-4.048-1.854-6.614-1.954l1.416-4.32 3.718.875a2.16 2.16 0 0 0 2.158 2.155 2.16 2.16 0 0 0 2.158-2.158 2.16 2.16 0 0 0-2.158-2.159 2.163 2.163 0 0 0-1.986 1.314l-4.075-.96-.009-.002-.381-.09-1.749 5.336c-2.663.05-5.077.775-6.871 1.926a2.615 2.615 0 0 0-1.737-.658 2.624 2.624 0 0 0-1.376 4.854 4.669 4.669 0 0 0-.066.779Zm.865 0c0-.275.03-.55.087-.818l.005-.01.001-.004a.428.428 0 0 0 .037-.166c.3-1.146 1.11-2.185 2.275-3.017a.441.441 0 0 0 .173-.12c1.73-1.172 4.186-1.904 6.904-1.904 2.746 0 5.222.747 6.955 1.939.05.06.113.105.186.131 1.14.831 1.93 1.863 2.219 3 0 .064.014.129.043.187.052.256.079.517.079.782 0 3.33-4.254 6.038-9.482 6.038S5.833 21.83 5.833 18.5Zm17.43-4.416c1.003.802 1.739 1.757 2.115 2.806a1.758 1.758 0 0 0-2.116-2.806Zm-18.61 1.405a1.758 1.758 0 0 1 2.76-1.442c-1.006.795-1.75 1.742-2.138 2.782a1.758 1.758 0 0 1-.621-1.34Zm18.565-8.623a1.295 1.295 0 0 0 0 2.587c.712 0 1.293-.58 1.293-1.293s-.58-1.294-1.293-1.294ZM11.63 21.784c.778.779 1.999 1.157 3.731 1.157 1.732 0 2.953-.378 3.731-1.157a.432.432 0 1 0-.61-.611c-.61.608-1.63.903-3.12.903-1.492 0-2.512-.296-3.12-.903a.433.433 0 0 0-.612.611Z" fill="#1E2537"/><path fill-rule="evenodd" clip-rule="evenodd" d="M10.261 17.243c0-.881.74-1.62 1.62-1.62.88 0 1.595.739 1.595 1.62 0 .88-.714 1.595-1.595 1.595s-1.62-.715-1.62-1.595Zm6.987 0c0-.882.74-1.62 1.621-1.62s1.596.738 1.596 1.62c0 .88-.714 1.595-1.596 1.595-.881 0-1.621-.714-1.621-1.595Z" fill="#FF4500"/></svg>
